src/pos-icons/bullhorn-outline.svg

<svg height="24" viewBox="0 0 24 24" width="24" xmlns="http://www.w3.org/2000/svg"><path d="m12 8h-8a2 2 0 0 0 -2 2v4a2 2 0 0 0 2 2h1v4a1 1 0 0 0 1 1h2a1 1 0 0 0 1-1v-4h3l5 4v-16zm3 7.6-2-1.6h-9v-4h9l2-1.6zm6.5-3.6c0 1.71-.96 3.26-2.5 4v-8c1.53.75 2.5 2.3 2.5 4z"/></svg>

<?xml version="1.0" encoding="UTF-8"?><!DOCTYPE svg PUBLIC "-//W3C//DTD SVG 1.1//EN" "http://www.w3.org/Graphics/SVG/1.1/DTD/svg11.dtd"><svg xmlns="http://www.w3.org/2000/svg" xmlns:xlink="http://www.w3.org/1999/xlink" version="1.1" id="mdi-bullhorn-outline" width="24" height="24" viewBox="0 0 24 24"><path d="M12,8H4A2,2 0 0,0 2,10V14A2,2 0 0,0 4,16H5V20A1,1 0 0,0 6,21H8A1,1 0 0,0 9,20V16H12L17,20V4L12,8M15,15.6L13,14H4V10H13L15,8.4V15.6M21.5,12C21.5,13.71 20.54,15.26 19,16V8C20.53,8.75 21.5,10.3 21.5,12Z" /></svg>
